assets/dude/That–Loretta.svg

<svg width="360" height="106" viewBox="0 0 360 106" fill="none" xmlns="http://www.w3.org/2000/svg">
<path d="M62.0919 0.659912C49.4919 0.659912 45.9919 7.0999 44.8719 7.0999C44.7319 7.0999 44.5919 6.95991 44.5919 6.81991C44.5919 6.67991 44.7319 6.25991 44.7319 5.97991C44.7319 4.29991 43.4719 3.03991 41.7919 3.03991C40.1119 3.03991 38.8519 4.29991 38.8519 5.97991C38.8519 6.25991 38.9919 6.67991 38.9919 6.81991C38.9919 6.95991 38.8519 7.0999 38.7119 7.0999C37.5919 7.0999 33.9519 0.659912 21.4919 0.659912C9.31191 0.659912 0.211914 10.3199 0.211914 22.4999V50.0799C0.211914 50.7799 0.771914 51.3399 1.47191 51.3399H9.03191C9.73192 51.3399 10.2919 50.7799 10.2919 50.0799V48.8199C10.2919 43.9199 14.2119 39.9999 19.1119 39.9999H35.4919C36.1919 39.9999 36.7519 40.5599 36.7519 41.2599V66.4599C36.7519 67.1599 36.1919 67.7199 35.4919 67.7199H21.6319C20.9319 67.7199 20.3719 68.2799 20.3719 68.9799V93.7599C20.3719 99.6399 24.9919 104.54 30.8719 104.54C37.0319 104.54 37.1719 101.18 38.7119 101.18C38.8519 101.18 38.9919 101.32 38.9919 101.46C38.9919 101.6 38.8519 102.02 38.8519 102.3C38.8519 103.98 40.1119 105.24 41.7919 105.24C43.4719 105.24 44.7319 103.98 44.7319 102.3C44.7319 102.02 44.5919 101.6 44.5919 101.46C44.5919 101.32 44.7319 101.18 44.8719 101.18C46.4119 101.18 46.4119 104.54 52.7119 104.54C58.5919 104.54 63.2119 99.6399 63.2119 93.7599V68.9799C63.2119 68.2799 62.6519 67.7199 61.9519 67.7199H48.0919C47.3919 67.7199 46.8319 67.1599 46.8319 66.4599V41.2599C46.8319 40.5599 47.3919 39.9999 48.0919 39.9999H64.4719C69.3719 39.9999 73.2919 43.9199 73.2919 48.8199V50.0799C73.2919 50.7799 73.8519 51.3399 74.5519 51.3399H82.1119C82.8119 51.3399 83.3719 50.7799 83.3719 50.0799V22.4999C83.3719 10.3199 74.2719 0.659912 62.0919 0.659912Z" fill="#FF1C31"/>
<path d="M174.762 3.1799C168.462 3.1799 168.462 6.53991 166.922 6.53991C166.782 6.53991 166.642 6.3999 166.642 6.25991C166.642 6.11991 166.782 5.6999 166.782 5.41991C166.782 3.73991 165.522 2.4799 163.842 2.4799C162.162 2.4799 160.902 3.73991 160.902 5.41991C160.902 5.6999 161.042 6.11991 161.042 6.25991C161.042 6.3999 160.902 6.53991 160.762 6.53991C159.222 6.53991 159.082 3.1799 152.922 3.1799C147.042 3.1799 142.422 7.93991 142.422 13.9599V38.7399C142.422 39.4399 142.982 39.9999 143.682 39.9999H157.542C158.242 39.9999 158.802 40.5599 158.802 41.2599V48.8199C158.802 49.5199 158.242 50.0799 157.542 50.0799H117.222C116.522 50.0799 115.962 49.5199 115.962 48.8199V41.2599C115.962 40.5599 116.522 39.9999 117.222 39.9999H131.082C131.782 39.9999 132.342 39.4399 132.342 38.7399V13.9599C132.342 7.93991 127.722 3.1799 121.842 3.1799C115.542 3.1799 115.542 6.53991 114.002 6.53991C113.862 6.53991 113.722 6.3999 113.722 6.25991C113.722 6.11991 113.862 5.6999 113.862 5.41991C113.862 3.73991 112.602 2.4799 110.922 2.4799C109.242 2.4799 107.982 3.73991 107.982 5.41991C107.982 5.6999 108.122 6.11991 108.122 6.25991C108.122 6.3999 107.982 6.53991 107.842 6.53991C106.302 6.53991 106.162 3.1799 100.002 3.1799C94.1224 3.1799 89.5024 7.93991 89.5024 13.9599V38.7399C89.5024 39.4399 90.0624 39.9999 90.7624 39.9999H104.622C105.322 39.9999 105.882 40.5599 105.882 41.2599V66.4599C105.882 67.1599 105.322 67.7199 104.622 67.7199H90.7624C90.0624 67.7199 89.5024 68.2799 89.5024 68.9799V93.8999C89.5024 99.7799 94.1224 104.54 100.002 104.54C106.162 104.54 106.302 101.18 107.842 101.18C107.982 101.18 108.122 101.32 108.122 101.46C108.122 101.6 107.982 102.02 107.982 102.3C107.982 103.98 109.242 105.24 110.922 105.24C112.602 105.24 113.862 103.98 113.862 102.3C113.862 102.02 113.722 101.6 113.722 101.46C113.722 101.32 113.862 101.18 114.002 101.18C115.542 101.18 115.542 104.54 121.842 104.54C127.722 104.54 132.342 99.7799 132.342 93.8999V68.9799C132.342 68.2799 131.782 67.7199 131.082 67.7199H117.222C116.522 67.7199 115.962 67.1599 115.962 66.4599V58.8999C115.962 58.1999 116.522 57.6399 117.222 57.6399H157.542C158.242 57.6399 158.802 58.1999 158.802 58.8999V66.4599C158.802 67.1599 158.242 67.7199 157.542 67.7199H143.682C142.982 67.7199 142.422 68.2799 142.422 68.9799V93.8999C142.422 99.7799 147.042 104.54 152.922 104.54C159.082 104.54 159.222 101.18 160.762 101.18C160.902 101.18 161.042 101.32 161.042 101.46C161.042 101.6 160.902 102.02 160.902 102.3C160.902 103.98 162.162 105.24 163.842 105.24C165.522 105.24 166.782 103.98 166.782 102.3C166.782 102.02 166.642 101.6 166.642 101.46C166.642 101.32 166.782 101.18 166.922 101.18C168.462 101.18 168.462 104.54 174.762 104.54C180.642 104.54 185.262 99.7799 185.262 93.8999V68.9799C185.262 68.2799 184.702 67.7199 184.002 67.7199H170.142C169.442 67.7199 168.882 67.1599 168.882 66.4599V41.2599C168.882 40.5599 169.442 39.9999 170.142 39.9999H184.002C184.702 39.9999 185.262 39.4399 185.262 38.7399V13.9599C185.262 7.93991 180.642 3.1799 174.762 3.1799Z" fill="#FF1C31"/>
<path d="M285.981 67.7199H273.801C273.101 67.7199 272.401 67.1599 271.701 66.0399L256.021 41.3999C256.021 41.3999 255.741 40.9799 255.741 40.5599C255.741 40.2799 256.021 39.9999 256.581 39.9999H259.521C260.221 39.9999 260.781 39.4399 260.781 38.7399V13.9599C260.781 7.93991 256.161 3.1799 250.281 3.1799C243.981 3.1799 243.981 6.53991 242.441 6.53991C242.301 6.53991 242.161 6.3999 242.161 6.25991C242.161 6.11991 242.301 5.6999 242.301 5.41991C242.301 3.73991 241.041 2.4799 239.361 2.4799C237.681 2.4799 236.421 3.73991 236.421 5.41991C236.421 5.6999 236.561 6.11991 236.561 6.25991C236.561 6.3999 236.421 6.53991 236.281 6.53991C234.741 6.53991 234.601 3.1799 228.441 3.1799C222.561 3.1799 217.941 7.93991 217.941 13.9599V38.7399C217.941 39.4399 218.501 39.9999 219.201 39.9999H223.821C224.381 39.9999 224.661 40.2799 224.661 40.5599C224.661 40.9799 224.381 41.3999 224.381 41.3999L208.701 66.0399C208.001 67.1599 207.581 67.7199 206.881 67.7199H192.741C192.041 67.7199 191.481 68.2799 191.481 68.9799V93.8999C191.481 99.7799 196.101 104.54 201.981 104.54C208.141 104.54 208.281 101.18 209.821 101.18C209.961 101.18 210.101 101.32 210.101 101.46C210.101 101.6 209.961 102.02 209.961 102.3C209.961 103.98 211.221 105.24 212.901 105.24C214.581 105.24 215.841 103.98 215.841 102.3C215.841 102.02 215.701 101.6 215.701 101.46C215.701 101.32 215.841 101.18 215.981 101.18C217.521 101.18 217.521 104.54 223.821 104.54C229.701 104.54 234.321 99.7799 234.321 93.8999V68.9799C234.321 68.2799 233.761 67.7199 233.061 67.7199H219.761C219.201 67.7199 218.781 67.7199 218.781 67.4399C218.781 67.0199 219.061 66.5999 219.061 66.5999L222.561 61.1399C223.261 60.0199 223.681 59.4599 224.381 59.4599H251.541C252.241 59.4599 252.661 60.0199 253.361 61.1399L256.721 66.3199C256.721 66.3199 257.001 66.7399 257.001 67.1599C257.001 67.4399 256.721 67.7199 256.161 67.7199H245.661C244.961 67.7199 244.401 68.2799 244.401 68.9799V93.8999C244.401 99.7799 249.021 104.54 254.901 104.54C261.061 104.54 261.201 101.18 262.741 101.18C262.881 101.18 263.021 101.32 263.021 101.46C263.021 101.6 262.881 102.02 262.881 102.3C262.881 103.98 264.141 105.24 265.821 105.24C267.501 105.24 268.761 103.98 268.761 102.3C268.761 102.02 268.621 101.6 268.621 101.46C268.621 101.32 268.761 101.18 268.901 101.18C270.441 101.18 270.441 104.54 276.741 104.54C282.621 104.54 287.241 99.7799 287.241 93.8999V68.9799C287.241 68.2799 286.681 67.7199 285.981 67.7199ZM246.081 51.8999H229.841C229.281 51.8999 229.001 51.6199 229.001 51.3399C229.001 50.9199 229.281 50.4999 229.281 50.4999L234.601 41.6799C235.301 40.5599 235.721 39.9999 236.421 39.9999H239.361C240.061 39.9999 240.481 40.5599 241.181 41.6799L246.641 50.4999C246.641 50.4999 246.921 50.9199 246.921 51.3399C246.921 51.6199 246.641 51.8999 246.081 51.8999Z" fill="#FF1C31"/>
<path d="M338.537 0.659912C325.937 0.659912 322.437 7.0999 321.317 7.0999C321.177 7.0999 321.037 6.95991 321.037 6.81991C321.037 6.67991 321.177 6.25991 321.177 5.97991C321.177 4.29991 319.917 3.03991 318.237 3.03991C316.557 3.03991 315.297 4.29991 315.297 5.97991C315.297 6.25991 315.437 6.67991 315.437 6.81991C315.437 6.95991 315.297 7.0999 315.157 7.0999C314.037 7.0999 310.397 0.659912 297.937 0.659912C285.757 0.659912 276.657 10.3199 276.657 22.4999V50.0799C276.657 50.7799 277.217 51.3399 277.917 51.3399H285.477C286.177 51.3399 286.737 50.7799 286.737 50.0799V48.8199C286.737 43.9199 290.657 39.9999 295.557 39.9999H311.937C312.637 39.9999 313.197 40.5599 313.197 41.2599V66.4599C313.197 67.1599 312.637 67.7199 311.937 67.7199H298.077C297.377 67.7199 296.817 68.2799 296.817 68.9799V93.7599C296.817 99.6399 301.437 104.54 307.317 104.54C313.477 104.54 313.617 101.18 315.157 101.18C315.297 101.18 315.437 101.32 315.437 101.46C315.437 101.6 315.297 102.02 315.297 102.3C315.297 103.98 316.557 105.24 318.237 105.24C319.917 105.24 321.177 103.98 321.177 102.3C321.177 102.02 321.037 101.6 321.037 101.46C321.037 101.32 321.177 101.18 321.317 101.18C322.857 101.18 322.857 104.54 329.157 104.54C335.037 104.54 339.657 99.6399 339.657 93.7599V68.9799C339.657 68.2799 339.097 67.7199 338.397 67.7199H324.537C323.837 67.7199 323.277 67.1599 323.277 66.4599V41.2599C323.277 40.5599 323.837 39.9999 324.537 39.9999H340.917C345.817 39.9999 349.737 43.9199 349.737 48.8199V50.0799C349.737 50.7799 350.297 51.3399 350.997 51.3399H358.557C359.257 51.3399 359.817 50.7799 359.817 50.0799V22.4999C359.817 10.3199 350.717 0.659912 338.537 0.659912Z" fill="#FF1C31"/>
</svg>

<svg xmlns="http://www.w3.org/2000/svg" fill="none" viewBox="0 0 360 106"><path fill="#FF1C31" d="M62.092.66c-12.6 0-16.1 6.44-17.22 6.44-.14 0-.28-.14-.28-.28s.14-.56.14-.84c0-1.68-1.26-2.94-2.94-2.94s-2.94 1.26-2.94 2.94c0 .28.14.7.14.84s-.14.28-.28.28c-1.12 0-4.76-6.44-17.22-6.44C9.312.66.212 10.32.212 22.5v27.58c0 .7.56 1.26 1.26 1.26h7.56c.7 0 1.26-.56 1.26-1.26v-1.26c0-4.9 3.92-8.82 8.82-8.82h16.38c.7 0 1.26.56 1.26 1.26v25.2c0 .7-.56 1.26-1.26 1.26h-13.86c-.7 0-1.26.56-1.26 1.26v24.78c0 5.88 4.62 10.78 10.5 10.78 6.16 0 6.3-3.36 7.84-3.36.14 0 .28.14.28.28s-.14.56-.14.84c0 1.68 1.26 2.94 2.94 2.94s2.94-1.26 2.94-2.94c0-.28-.14-.7-.14-.84s.14-.28.28-.28c1.54 0 1.54 3.36 7.84 3.36 5.88 0 10.5-4.9 10.5-10.78V68.98c0-.7-.56-1.26-1.26-1.26h-13.86c-.7 0-1.26-.56-1.26-1.26v-25.2c0-.7.56-1.26 1.26-1.26h16.38c4.9 0 8.82 3.92 8.82 8.82v1.26c0 .7.56 1.26 1.26 1.26h7.56c.7 0 1.26-.56 1.26-1.26V22.5c0-12.18-9.1-21.84-21.28-21.84zM174.762 3.18c-6.3 0-6.3 3.36-7.84 3.36-.14 0-.28-.14-.28-.28s.14-.56.14-.84c0-1.68-1.26-2.94-2.94-2.94s-2.94 1.26-2.94 2.94c0 .28.14.7.14.84s-.14.28-.28.28c-1.54 0-1.68-3.36-7.84-3.36-5.88 0-10.5 4.76-10.5 10.78v24.78c0 .7.56 1.26 1.26 1.26h13.86c.7 0 1.26.56 1.26 1.26v7.56c0 .7-.56 1.26-1.26 1.26h-40.32c-.7 0-1.26-.56-1.26-1.26v-7.56c0-.7.56-1.26 1.26-1.26h13.86c.7 0 1.26-.56 1.26-1.26V13.96c0-6.02-4.62-10.78-10.5-10.78-6.3 0-6.3 3.36-7.84 3.36-.14 0-.28-.14-.28-.28s.14-.56.14-.84c0-1.68-1.26-2.94-2.94-2.94s-2.94 1.26-2.94 2.94c0 .28.14.7.14.84s-.14.28-.28.28c-1.54 0-1.68-3.36-7.84-3.36-5.88 0-10.5 4.76-10.5 10.78v24.78c0 .7.56 1.26 1.26 1.26h13.86c.7 0 1.26.56 1.26 1.26v25.2c0 .7-.56 1.26-1.26 1.26h-13.86c-.7 0-1.26.56-1.26 1.26V93.9c0 5.88 4.62 10.64 10.5 10.64 6.16 0 6.3-3.36 7.84-3.36.14 0 .28.14.28.28s-.14.56-.14.84c0 1.68 1.26 2.94 2.94 2.94s2.94-1.26 2.94-2.94c0-.28-.14-.7-.14-.84s.14-.28.28-.28c1.54 0 1.54 3.36 7.84 3.36 5.88 0 10.5-4.76 10.5-10.64V68.98c0-.7-.56-1.26-1.26-1.26h-13.86c-.7 0-1.26-.56-1.26-1.26V58.9c0-.7.56-1.26 1.26-1.26h40.32c.7 0 1.26.56 1.26 1.26v7.56c0 .7-.56 1.26-1.26 1.26h-13.86c-.7 0-1.26.56-1.26 1.26V93.9c0 5.88 4.62 10.64 10.5 10.64 6.16 0 6.3-3.36 7.84-3.36.14 0 .28.14.28.28s-.14.56-.14.84c0 1.68 1.26 2.94 2.94 2.94s2.94-1.26 2.94-2.94c0-.28-.14-.7-.14-.84s.14-.28.28-.28c1.54 0 1.54 3.36 7.84 3.36 5.88 0 10.5-4.76 10.5-10.64V68.98c0-.7-.56-1.26-1.26-1.26h-13.86c-.7 0-1.26-.56-1.26-1.26v-25.2c0-.7.56-1.26 1.26-1.26h13.86c.7 0 1.26-.56 1.26-1.26V13.96c0-6.02-4.62-10.78-10.5-10.78zM285.981 67.72h-12.18c-.7 0-1.4-.56-2.1-1.68l-15.68-24.64s-.28-.42-.28-.84c0-.28.28-.56.84-.56h2.94c.7 0 1.26-.56 1.26-1.26V13.96c0-6.02-4.62-10.78-10.5-10.78-6.3 0-6.3 3.36-7.84 3.36-.14 0-.28-.14-.28-.28s.14-.56.14-.84c0-1.68-1.26-2.94-2.94-2.94s-2.94 1.26-2.94 2.94c0 .28.14.7.14.84s-.14.28-.28.28c-1.54 0-1.68-3.36-7.84-3.36-5.88 0-10.5 4.76-10.5 10.78v24.78c0 .7.56 1.26 1.26 1.26h4.62c.56 0 .84.28.84.56 0 .42-.28.84-.28.84l-15.68 24.64c-.7 1.12-1.12 1.68-1.82 1.68h-14.14c-.7 0-1.26.56-1.26 1.26V93.9c0 5.88 4.62 10.64 10.5 10.64 6.16 0 6.3-3.36 7.84-3.36.14 0 .28.14.28.28s-.14.56-.14.84c0 1.68 1.26 2.94 2.94 2.94s2.94-1.26 2.94-2.94c0-.28-.14-.7-.14-.84s.14-.28.28-.28c1.54 0 1.54 3.36 7.84 3.36 5.88 0 10.5-4.76 10.5-10.64V68.98c0-.7-.56-1.26-1.26-1.26h-13.3c-.56 0-.98 0-.98-.28 0-.42.28-.84.28-.84l3.5-5.46c.7-1.12 1.12-1.68 1.82-1.68h27.16c.7 0 1.12.56 1.82 1.68l3.36 5.18s.28.42.28.84c0 .28-.28.56-.84.56h-10.5c-.7 0-1.26.56-1.26 1.26V93.9c0 5.88 4.62 10.64 10.5 10.64 6.16 0 6.3-3.36 7.84-3.36.14 0 .28.14.28.28s-.14.56-.14.84c0 1.68 1.26 2.94 2.94 2.94s2.94-1.26 2.94-2.94c0-.28-.14-.7-.14-.84s.14-.28.28-.28c1.54 0 1.54 3.36 7.84 3.36 5.88 0 10.5-4.76 10.5-10.64V68.98c0-.7-.56-1.26-1.26-1.26zm-39.9-15.82h-16.24c-.56 0-.84-.28-.84-.56 0-.42.28-.84.28-.84l5.32-8.82c.7-1.12 1.12-1.68 1.82-1.68h2.94c.7 0 1.12.56 1.82 1.68l5.46 8.82s.28.42.28.84c0 .28-.28.56-.84.56z"/><path fill="#FF1C31" d="M338.537.66c-12.6 0-16.1 6.44-17.22 6.44-.14 0-.28-.14-.28-.28s.14-.56.14-.84c0-1.68-1.26-2.94-2.94-2.94s-2.94 1.26-2.94 2.94c0 .28.14.7.14.84s-.14.28-.28.28c-1.12 0-4.76-6.44-17.22-6.44-12.18 0-21.28 9.66-21.28 21.84v27.58c0 .7.56 1.26 1.26 1.26h7.56c.7 0 1.26-.56 1.26-1.26v-1.26c0-4.9 3.92-8.82 8.82-8.82h16.38c.7 0 1.26.56 1.26 1.26v25.2c0 .7-.56 1.26-1.26 1.26h-13.86c-.7 0-1.26.56-1.26 1.26v24.78c0 5.88 4.62 10.78 10.5 10.78 6.16 0 6.3-3.36 7.84-3.36.14 0 .28.14.28.28s-.14.56-.14.84c0 1.68 1.26 2.94 2.94 2.94s2.94-1.26 2.94-2.94c0-.28-.14-.7-.14-.84s.14-.28.28-.28c1.54 0 1.54 3.36 7.84 3.36 5.88 0 10.5-4.9 10.5-10.78V68.98c0-.7-.56-1.26-1.26-1.26h-13.86c-.7 0-1.26-.56-1.26-1.26v-25.2c0-.7.56-1.26 1.26-1.26h16.38c4.9 0 8.82 3.92 8.82 8.82v1.26c0 .7.56 1.26 1.26 1.26h7.56c.7 0 1.26-.56 1.26-1.26V22.5c0-12.18-9.1-21.84-21.28-21.84z"/></svg>
